X:1
T:Die Hoffnung
T:Wenzel Heinrich Veit
T:Emanuel Geibel
T:Die Hoffnung
T:CPDL - Creative Commons Attribution Non Commercial 3.0
T:CPDL - Creative Commons Attribution Non Commercial 3.0
T:CPDL - Creative Commons Attribution Non Commercial 3.0
T:CPDL - Creative Commons Attribution Non Commercial 3.0
T:CPDL - Creative Commons Attribution Non Commercial 3.0
T:CPDL - Creative Commons Attribution Non Commercial 3.0
T:CPDL - Creative Commons Attribution Non Commercial 3.0
T:CPDL - Creative Commons Attribution Non Commercial 3.0
T:CPDL - Creative Commons Attribution Non Commercial 3.0
T:CPDL - Creative Commons Attribution Non Commercial 3.0
T:CPDL - Creative Commons Attribution Non Commercial 3.0
T:CPDL - Creative Commons Attribution Non Commercial 3.0
T:CPDL - Creative Commons Attribution Non Commercial 3.0
T:CPDL - Creative Commons Attribution Non Commercial 3.0
T:CPDL - Creative Commons Attribution Non Commercial 3.0
C:Wenzel Heinrich Veit
Z:Emanuel Geibel
Z:CPDL - Creative Commons Attribution Non Commercial 3.0
%%score [ ( 1 2 ) ( 3 4 ) ] [ ( 5 6 ) ( 7 8 ) ]
L:1/8
Q:1/4=100
M:6/8
K:G
V:1 treble-8 nm="Tenor\nSolo" snm="T\nS"
V:2 treble-8 
V:3 bass nm="Bass\nSolo" snm="B\nS"
V:4 bass 
V:5 treble-8 nm="Tenor" snm="T"
V:6 treble-8 
V:7 bass nm="Bass" snm="B"
V:8 bass 
V:1
"^Ziemlich schnell""^Tutti" z | z6 | z6 | z6 | z6 | z6 | z6 | z6 | z6 | z6 | z6 | z6 | z6 | z6 | %14
w: ||||||||||||||
 z6 | z6 | z6 | z6 | z6 | z6 | z6 | z6 | z6 | z6 | z6 | z6 | z6 | z6 | z6 | z6 | z6 | z6 | z6 | %33
w: |||||||||||||||||||
 z6 | z6 | z6 | z6 | z6 | z6 | z6 | z6 | z6 | z6 | z6 | z6 | z6 | z6 | z6 | z2 z ||[K:C][M:4/4] z | %50
w: |||||||||||||||||
[Q:1/4=90]"^Langsam, aber nicht schleppend"!p!"^Solo" G2 | c2 z c d2 z c | B>B!>(! g4!>)! g2 | %53
w: Da|wacht die Er- de|grü- nend auf, weiß|
 f2 z e .e2 .^d2 | .e2 .e2 z2 e2 | f2!<(! ff ^f2 f!<)!f |!>(! g2 =ff e2!>)! e2 | a2 ^fe ed d2 | %58
w: nicht, wie ihr ge-|sche- hen, und|lacht in den son- ni- gen|Him- mel hin- auf, und|möch- te vor Lust * ver-|
 d4!<(! g4-!<)! |!>(! g2 ^fe d2!>)! f2 | (g4 =f2) d2 | c2 z2 z4 | z8 | z8 | z8 | z8 | z8 | z8 | %68
w: gehn, möch-|* te vor Lust ver-|gehn, _ ver-|gehn.|||||||
 z8 | z8 | z8 | z8 | z8 | z8 | z8 | z8 | z8 | z8 | z2"^Solo" g2 d2 cB | BA!<(!AA c2!<)! B2 | %80
w: ||||||||||als wä- ren, als|wä- * ren es Freu- den-|
!>(! d2!>)! c z z4 | z8 | z4 z2!p! D2 | =F4- F z!pp! D2 | F4- F !fermata!z!p! G2 | c2 z c d2 z c | %86
w: zäh- ren.||Drum|still, _ drum|still, _ drum|still, und wie es|
 B>B!>(! !^!g4!>)! z2 | z8 | z4 z2!p! g2 | g3 ^f f2 =f2 | f4 e z z2 | z8 | z4 z2!p!"^Solo" c2 | %93
w: frie- ren mag,||o|Herz, gib dich zu-|frie- den,||es|
 f3 c c2 f2 | g3!<(! e d2 c2!<)! |!>(! a3 g f2!>)! e2 | e4 d2 z2 | z8 | z8 | z8 | z8 || %101
w: ist ein gro- ßer|Mai- en- tag der|gan- zen Welt be-|schie- den.|||||
[M:6/8][Q:1/4=100]"^Im ersten Tempo" z6 | z6 | z6 | z6 | z6 | z6 | z6 | z6 | z6 | z6 | z6 | z3 | %113
w: ||||||||||||
 z3 | z6 | z6 | z6 | z6 | z6 | z2!ff! ^d d2 d | ^d2 z4 | z6 | z6 | z6 | z6 | z6 ||[K:E] z6 | z6 | %128
w: ||||||auf Gott ver-|traut,||||||||
 z6 | z6 | z6 | z6 | z6 | z6 | z6 | z6 | z6 | z6 | z6 | z6 | z6 | z6 | z6 | z6 | z6 | z6 | z6 | %147
w: |||||||||||||||||||
 z6 | z6 | z6 | z6 | z6 |] %152
w: |||||
V:2
 x | x6 | x6 | x6 | x6 | x6 | x6 | x6 | x6 | x6 | x6 | x6 | x6 | x6 | x6 | x6 | x6 | x6 | x6 | x6 | %20
w: ||||||||||||||||||||
 x6 | x6 | x6 | x6 | x6 | x6 | x6 | x6 | x6 | x6 | x6 | x6 | x6 | x6 | x6 | x6 | x6 | x6 | x6 | %39
w: |||||||||||||||||||
 x6 | x6 | x6 | x6 | x6 | x6 | x6 | x6 | x6 | x3 ||[K:C][M:4/4] x | G2 | G2 x G G2 x G | %52
w: |||||||||||||
 G>G B4 c2 | c2 x c c2 B2 | B2 B2 x2 B2 | d2 dd d2 dd | d2 dd c2 d2 | c2 cc c2 c2 | %58
w: ||||||
 (B2 d)d ^c2 =c2 | B2 c^c d2 d2 | (d4 =c2) B2 | G2 x2 x4 | x8 | x8 | x8 | x8 | x8 | x8 | x8 | x8 | %70
w: * * ver- gehn, und|möch- te * * *|||||||||||
 x8 | x8 | x8 | x8 | x8 | x8 | x8 | x8 | x2 z2 z2 z G | G2 GG G2 G2 | B2 c x x4 | x8 | x4 x2 D2 | %83
w: |||||||||||||
 F4- F x D2 | F4- F x G2 | G2 x G G2 x G | G>G B4 x2 | x8 | x4 x2 e2 | d3 d d2 d2 | d4 c x x2 | %91
w: ||||||||
 x8 | x8 | x8 | x8 | x8 | x8 | x8 | x8 | x8 | x8 ||[M:6/8] x6 | x6 | x6 | x6 | x6 | x6 | x6 | x6 | %109
w: ||||||||||||||||||
 x6 | x6 | x6 | x3 | x3 | x6 | x6 | x6 | x6 | x6 | x2 B B2 B | B2 x4 | x6 | x6 | x6 | x6 | x6 || %126
w: |||||||||||||||||
[K:E] x6 | x6 | x6 | x6 | x6 | x6 | x6 | x6 | x6 | x6 | x6 | x6 | x6 | x6 | x6 | x6 | x6 | x6 | %144
w: ||||||||||||||||||
 x6 | x6 | x6 | x6 | x6 | x6 | x6 | x6 |] %152
w: ||||||||
V:3
 z | z6 | z6 | z6 | z6 | z6 | z6 | z6 | z6 | z6 | z6 | z6 | z6 | z6 | z6 | z6 | z6 | z6 | z6 | z6 | %20
 z6 | z6 | z6 | z6 | z6 | z6 | z6 | z6 | z6 | z6 | z6 | z6 | z6 | z6 | z6 | z6 | z6 | z6 | z6 | %39
 z6 | z6 | z6 | z6 | z6 | z6 | z6 | z6 | z6 | z2 z ||[K:C][M:4/4] z |!p! G,2 | E,2 z E, F,2 z E, | %52
 F,>F,!>(! G,4!>)! G,2 | A,2 z A, A,2 A,2 | ^G,2 G,2 z2 G,2 | A,2!<(! A,A, A,2 A,!<)!A, | %56
!>(! G,2 G,G, G,2!>)! ^G,2 | A,2 A,=G, ^F,2 G,A, | B,2 A,!<(!_A, G,2 G,2!<)! | %59
!>(! G,2 =A,^A, B,2!>)! [=A,C]2 | (B,4 A,2) F,2 | E,2 z2 z4 | z8 | z8 | z8 | z8 | z8 | z8 | z8 | %69
 z8 | z8 | z8 | z8 | z8 | z8 | z8 | z8 | z8 | z4 z2 z!p! D, | E,2!<(! E,E, F,2!<)! F,2 | %80
!>(! G,2!>)! G, z z4 | z8 | z4 z2!p! D,2 | =F,4- F, z!pp! D,2 | F,4- F, !fermata!z!p! G,2 | %85
 E,2 z E, F,2 z E, | F,>F,!>(! G,4!>)! z2 | z8 | z4 z2!p! A,2 | A,3 A, A,2 _A,2 | G,4 G, z z2 | %91
 z8 | z8 | z8 | z8 | z8 | z8 | z8 | z8 | z8 | z8 ||[M:6/8] z6 | z6 | z6 | z6 | z6 | z6 | z6 | z6 | %109
 z6 | z6 | z6 | z3 | z3 | z6 | z6 | z6 | z6 | z6 | z2!ff! ^F, F,2 F, | ^F,2 z4 | z6 | z6 | z6 | %124
 z6 | z6 ||[K:E] z6 | z6 | z6 | z6 | z6 | z6 | z6 | z6 | z6 | z6 | z6 | z6 | z6 | z6 | z6 | z6 | %142
 z6 | z6 | z6 | z6 | z6 | z6 | z6 | z6 | z6 | z6 |] %152
V:4
 x | x6 | x6 | x6 | x6 | x6 | x6 | x6 | x6 | x6 | x6 | x6 | x6 | x6 | x6 | x6 | x6 | x6 | x6 | x6 | %20
w: ||||||||||||||||||||
 x6 | x6 | x6 | x6 | x6 | x6 | x6 | x6 | x6 | x6 | x6 | x6 | x6 | x6 | x6 | x6 | x6 | x6 | x6 | %39
w: |||||||||||||||||||
 x6 | x6 | x6 | x6 | x6 | x6 | x6 | x6 | x6 | x3 ||[K:C][M:4/4] x | G,2 | C,2 x C, B,,2 x C, | %52
w: |||||||||||||
 D,>D, F,4 E,2 | A,2 x G, .^F,2 .B,,2 | .E,2 .E,2 x2 E,2 | D,2 D,D, C,2 C,C, | %56
w: ||||
 B,,2 B,,B,, C,2 B,,2 | A,,2 A,,A,, D,2 E,^F, | G,2 ^F,=F, E,2 _E,2 | D,2 D,D, D,2 D,2 | %60
w: ||||
 G,,6 G,,2 | C,2 x2 z4 | x8 | x8 | x8 | x8 | x8 | x8 | x8 | x8 | x8 | x8 | x8 | x8 | x8 | x8 | x8 | %77
w: |||||||||||||||||
 x8 | x4 x2 x B,, | C,2 C,C, D,2 D,2 | F,2 E, x x4 | x8 | x4 x2 D,2 | F,4- F, x D,2 | %84
w: |||||||
 F,4- F, x G,2 | C,2 x C, B,,2 x C, | D,>D, !^!F,4 x2 | x8 | x4 x2 ^C,2 | D,3 D, D,2 =C,2 | %90
w: ||||||
 B,,4 C, x x2 | x8 | x8 | x8 | x8 | x8 | x8 | x8 | x8 | x8 | x8 ||[M:6/8] x6 | x6 | x6 | x6 | x6 | %106
w: ||||||||||||||||
 x6 | x6 | x6 | x6 | x6 | x6 | x3 | x3 | x6 | x6 | x6 | z2!ff! B, B,2 B, | B,2 z z3 | %119
w: |||||||||||nur un- ver-|zagt|
 x2 B,, B,,2 B,, | B,,2 x4 | x6 | x6 | x6 | x6 | x6 ||[K:E] x6 | x6 | x6 | x6 | x6 | x6 | x6 | x6 | %134
w: |||||||||||||||
 x6 | x6 | x6 | x6 | x6 | x6 | x6 | x6 | x6 | x6 | x6 | x6 | x6 | x6 | x6 | x6 | x6 | x6 |] %152
w: ||||||||||||||||||
V:5
!p! B | B2 B B2"^cresc." B | B2 c B2!f! B | e2 d cGA | B3 E z!p! F | G2 A B2"^cresc." ^c | %6
w: Und|dräut der Win- ter|noch so sehr mit|trot- zi- gen _ Ge-|bär- den, und|streut er Eis und|
 d2 ^d e2!f! f | !^!g3 B2 g | !^!^g3 ^c2 c | !^!f3 !^!^d3 | !^!e3 !^!^c3 | !^!^c6 | B2 z z2!p! B | %13
w: Schnee um- her, es|muss doch, es|muss doch, es|muss doch|Früh- ling|wer-|den! Und|
 BBB B2 B |"^cresc." B2 c B2!f! B | e2 d cBc | d3 D2!p! A | B2 d c2"^cresc." ^c | d2 g f3 | %19
w: drän- gen die Ne- bel|noch so dicht sich|vor den Blick _ der|Son- ne, sie|we- cket doch mit|ih- rem Licht|
!f! (g3 g2) a | f3 e2 e | (d3 d2) e | (c3 Bc)d | e3 e3 | e3 a2 g | f2 e d2 g | (g3 f3) | g z z z3 | %28
w: ein- * mal,|ein- mal die|Welt _ zur|Won- * * ne,|ein- mal,|ein- mal die|Welt, die Welt zur|Won- *|ne.|
 z3!f! c2 c | B2 d g2 f | e3- e2 _e | d2 z d3 | ^d2 d e2 e | f3 B z z | z3!pp! B3 | e6- | e6 | %37
w: Blast nur,|blast ihr Stür- me,|blast _ mit|Macht, mir|soll da- rob nicht|ban- gen,|auf|lei-||
 e3 _e3 | _e3 d3 | d2 d d2 d | c2 z =f3- | f3 c2 c | c3 B3 | B3 B z z | e6- | e3 B2 ^G | E3- E2 E | %47
w: sen, auf|lei- sen|Soh- len ü- ber|Nacht, kommt|_ doch der|Lenz ge-|gan- gen.|kommt|_ doch der|Lenz _ ge-|
 E3- E2 F | !fermata!E3 ||[K:C][M:4/4] x | z2 | z8 | z8 | z8 | z8 | z8 | z8 | z8 | z8 | z8 | %60
w: gan- * *|gen.||||||||||||
 z4 z2"^Tutti"!pp! G2 | c2 z c d2 z c | B>B!>(! !^!g4!>)! g2 | f2 z e .e2 .^d2 | .e2 .e2 z2 e2 | %65
w: Da|wacht die Er- de|grü- nend auf, weiß|nicht, wie ihr ge-|sche- hen, und|
 e2 ee f2 ff |"^cresc." ^f2 gg a2 _a2 | g2 ee"^dim." e2 d2 |!<(! ^c2 e2!<)! g2!>(! ^f!>)!=f | %69
w: lacht in den son- ni- gen|Him- mel hin- auf, und|möch- te vor Lust ver-|gehn, und möch- te, und|
 e2 e"^dim."d (c2 B)e | c2 z2 z4 | z8 | z2 z!p! d (g2 f)g | f2 ee e2 ee | ed d2"^cresc." g2 de | %75
w: möch- te vor Lust _ ver-|gehn.||Sie flicht _ sich|blü- hen- de Krän- ze ins|Haar _ und schmückt sich mit|
 eddd g2 d"^cresc."e | =feee!f! a2 g2 | ^f2 e2 d3 d | d2 z2 z4 | z8 | z2 z"^Tutti" c g4- | %81
w: Ro- * sen, mit Ro- sen und|Äh- * ren, und lässt die|Brünn- lein rie- seln|klar,||als wä-|
 g2 d"^dim."d d3 c |!p! c4 B z z2 | z2!p! c z B z z2 | z2!pp! e z d !fermata!z z2 | z8 | %86
w: * ren es Freu- den-|zäh- ren.|Drum still,|drum still,||
 z4 z2!p! B2 | c2 z c d2 z c |!<(! ^c>!<)!c!>(! a4!>)! z2 | z8 | z4 z z!p! e2 | e3 ^d d2 =d2 | %92
w: drum|still, und wie es|frie- ren mag,||o|Herz, gib dich zu-|
 d4 c2!p! _B2 | A8 |!<(! _B8!<)! |!>(! A8-!>)! | A6 d2 | c3 G"^cresc." G2 c2 | e3 c c2 e2 | %99
w: frie- den, es|ist,|es|ist,|_ es|ist ein gro- ßer|Mai- en- tag der|
!f! g3 g f2 e2 | (e6 d2) ||[M:6/8] c z z z3 | z6 | z6 | z6 | z2!p! f f2 f | e3 _e3 | d3- d2 d | %108
w: gan- zen Welt be-|schie- *|den.||||Und wenn dir|oft auch|bangt _ und|
 =e3 ^f3 |!f! g3- g2 g | g3- g2"^cresc." g | gef g3- | g2 g | g2 ^f | ^f z!ff! e e2 ^d | %115
w: graut, und|wenn _ dir|oft _ auch|bangt * und graut,|_ auch|bangt und|graut, als sei, als|
 ^d2 ^c c2 ^f | (^f2 ^d) B z z | z6 | z2!ff! B B2 B | B2 z4 | z2 ^d d2 d | ^d2 z d3 | ^f6- | %123
w: sei die Höll' auf|Er- * den,||nur un- ver-|zagt|auf Gott ver-|traut, auf|Gott|
 f3 ^d3 | ^d3 z z B | B3 B2 B ||[K:E] B3- B2 e | g3 g3 | g6 | f z c c2 e | B3 e3 | f3- f2 ^^f | %132
w: _ ver-|traut, es|muss doch, es|muss _ doch|Früh- ling|wer-|den, nur un- ver-|zagt auf|Gott _ ver-|
 g2 z z3 | z3 B3 | B3- B2 e | g3 b3 | a3 g2 g | f3 e3 | e2!p! B B2 ^B | c2"^cresc." c c2 ^^c | %140
w: traut,|es|muss _ doch|Früh- ling|wer- den, nur|un- ver-|zagt, nur un- ver-|zagt, nur un- ver-|
 d2 d d2 e |!f! g3 f3 | e2 z z3 | z2 e e2 f | g2 z z3 | z2 e e2 f | g3- g2 g | g3 f3 | a6- | %149
w: zagt auf Gott, auf|Gott ver-|traut,|nur un- ver-|zagt|auf Gott ver-|traut, _ auf|Gott, auf|Gott|
 a3 d3 | e6- | !fermata!e6 |] %152
w: _ ver-|traut!|_|
V:6
 F | G2 A G2 F | G2 A G2 B | e2 d cGA | B3 E x F | G2 A B2 ^A | B2 B B2 ^d | e3 B2 e | ^c3 B2 B | %9
w: |||||||||
 ^d3 B3 | ^A3 A3 | ^A6 | B2 x x2 F | GGA G2 F | G2 A G2 B | e2 d cBc | d3 D2 A | B2 B c2 ^c | %18
w: |||||||||
 d2 e =c3 | (B3 ^c2) c | dAB =c2 c | (B3 B2) G | (GEF G2) G | c3 d3 | c3 e2 d | c2 c B2 d | %26
w: ||||||||
 (e3 d3) | d x x x3 | x3 G2 G | G2 B c2 d | c3- c2 c | B2 x B3 | B2 B B2 B | B3 B x x | z6 | %35
w: |||||||||
 z3!pp! d3 | c6 | c3 c3 | c3 c3 | B2 B B2 B | c2 x z3 | A3 A2 A | A3 A3 | ^G3 G x x | z3 c2 c | %45
w: auf|lei-|sen, *||||kommt * *|||ü- ber|
 B z z z3 | z3 c2 c | B z z z3 | z3 ||[K:C][M:4/4] x | z2 | x8 | x8 | x8 | x8 | x8 | x8 | x8 | x8 | %59
w: Nacht,|ü- ber|Nacht!||||||||||||
 x8 | x4 x2 G2 | G2 x G G2 x G | G>G B4 c2 | c2 x c c2 B2 | B2 B2 x2 B2 | c2 cc c2 cc | %66
w: |||||||
 d2 dd d2 ^d2 | e2 cc B2 B2 | A2 ^c2 e2 dd | =c2 A_A G3 G | G2 x2 x4 | z2 z!p! A (d2 c)d | %72
w: |||||Sie flicht _ sich|
 c2 BA (G c2 B- | BG)cd c2 Bc | A3 A G3 G | A2 Bc B2 BB | B2 cd c2 z!f! c | c2 B2 A3 A | G2 x2 x4 | %79
w: blü- hen- de, blü- * *|* * hen- de * * *|* und schmückt, und|schmückt sich * * * *||||
 x8 | x2 x c c2"^cresc." ^cc | d2 BB A3 A | [^FA]4 G x x2 | x2 _A x G x x2 | x2 B x B x x2 | x8 | %86
w: |als wä- ren, als|wä- ren * * *|||||
 x4 x2 G2 | G2 x G G2 x G | A>A ^c4 x2 | x8 | x4 x x c2 | c3 B B2 B2 | B4 A2 E2 | F8 | E8 | F8- | %96
w: ||||||||||
 F6 A2 | G3 E E2 G2 | c3 G G2 c2 | e3 e c2 c2 | (c4 B4) ||[M:6/8] c x x x3 | x6 | z z!p! c c2 c | %104
w: |||||||Und wenn dir|
 B3 _B3 | AFG A2 A | _B3 c2"^cresc." B | A^FG A3- | A3 d3 | d3- d2 d | d3- d2 d | ecd e3- | e2 e | %113
w: oft auch|bangt * und graut, und|wenn dir auch|bangt * und graut,|_ _|||||
 e2 e | ^d x ^A A2 B | B2 ^A A2 B | B3 B x x | x6 | x2 B B2 B | B2 x4 | x2 B B2 B | B2 x B3 | %122
w: |||||||||
 ^d6- | d3 B3 | B3 x x B | B3 B2 B ||[K:E] B3- B2 B | e3 e3 | c6 | c x A A2 c | G3 B3 | d3- d2 d | %132
w: ||||||||||
 e2 x x3 | x3 B3 | B3- B2 B | e3 e3 | e3 c2 c | c3 =c3 | B2 G G2 G | G2 G G2 G | A2 A A2 B | %141
w: |||||||||
 e3 d3 | e2 x x3 | x2 e e2 d | e2 x x3 | x2 e e2 d | e3- e2 e | e3 e3 | d6- | d3 B3 | B6- | B6 |] %152
w: |||||||||||
V:7
!p! ^D, | E,2 F, E,2"^cresc." ^D, | E,2 F, E,2!f! B, | E2 D CG,A, | B,3 E, z!p! ^D, | %5
w: |||||
 E,2 F, G,2"^cresc." F, | B,2 A, G,2!f! B, | B,3 G,2 B, | B,3 ^G,2 G, | B,3 F,3 | ^C,3 E,3 | E,6 | %12
w: |||||||
 ^D,2 z z2!p! D, | E,E,F, E,2 ^D, |"^cresc." E,2 F, E,2!f! B, | E2 D CB,C | D3 D,2!p! F, | %17
w: |||||
 G,2 ^G, A,2"^cresc." ^A, | B,2 C =A,3 |!f! (G,3 E,2) E, | D,3 F,G,A, | (B,3 G,2) =F, | %22
w: |||||
 (E,2 _E, D,2) G, | G,3 ^G,3 | A,3 C2 B, | A,2 F, G,2 B, | (A,3 C3) | B, z z!f! G,2 F, | %28
w: |||||* Blast nur,|
 (E,3-!f! E,2 _E,) | D,2 G, A,2 B, | (C3 G,2) A, | B,2 z B,3 | A,2 A, G,2 G, | F,3 F, z z | z6 | %35
w: blast _ _|_ _ _ _||||||
 z6 | z3!pp! B,3 | A,6- | A,3 A,3 | A,2 ^G, G,2 G, | A,2 z z3 | C,3 =F,2 F, | E,3 ^F,3 | %43
w: |auf|lei-|* sen|||||
 E,3 E, z z | z3 A,2 A, | ^G, z z z3 | z3 F,2 F, | ^G, z z z3 | !fermata!z3 ||[K:C][M:4/4] x | z2 | %51
w: ||||||||
 z8 | z8 | z8 | z8 | z8 | z8 | z8 | z8 | z8 | z4 z2!pp! G,2 | E,2 z E, F,2 z E, | %62
w: |||||||||||
 F,>F,!>(! G,4!>)! G,2 | A,2 z A, A,2 A,2 | ^G,2 G,2 z2 G,2 | A,2 A,A, A,2 A,A, | %66
w: ||||
"^cresc." C2 CC C2 C2 | C2 G,G,"^dim." G,2 F,2 |!<(! E,2 A,2!<)! A,2!>(! A,!>)!_A, | %69
w: |||
 G,2 F,"^dim."F, (E,2 F,)F, | E,2!p! z2 z4 | z8 | z8 | z2 z!p! E, A,2 G,A, | %74
w: ||||Sie flicht _ sich|
 G,^F,F,F,"^cresc." G,3 G, | ^F,2 G,F, G,2 G,"^cresc."G, | ^G,2 A,G, A,2 z!f! A, | %77
w: Krän- * ze und * *||* * * * die|
 A,2 =G,2 ^F,3 F, | G,2 z2 z4 | z8 | z2 z G, G,2"^cresc." G,A, | B,2 G,"^dim."G, ^F,3 F, | %82
w: |||||
!p! D,4 D, z z2 | z2!p! D, z D, z z2 | z2!pp! G, z G, !fermata!z z2 | z8 | z4 z2!p! F,2 | %87
w: |||||
 E,2 z E, F,2 z E, |!<(! E,>!<)!E,!>(! E,4!>)! z2 | z8 | z4 z z!p! G,2 | ^F,3 F, F,2 =F,2 | %92
w: |||||
 E,4 E,2!p! C,2 | C,8 |!<(! C,8!<)! |!>(! (C,4 ^C,4!>)! | D,6) F,2 | E,3 C,"^cresc." C,2 E,2 | %98
w: ||||||
 G,3 E, E,2 G,2 |!f! C3 C A,2 A,2 | (G,4 =F,4) ||[M:6/8] E, z!p! C C2 C | B,3 _B,3 | A,F,G, _A,3 | %104
w: |||* Und wenn dir|oft auch|bangt * und graut,|
 G,3 E,3 | F,2 z z2 F, | G,3 A,2"^cresc." G, | ^F,D,!mf!E, (F,3 | G,3) A,3 |!f! G,3- G,2 G, | %110
w: bangt und|graut, *|||||
 G,3- G,2"^cresc." G, | G,3- G,G,A, | ^A,2 A, | ^A,2 A, | B, z!ff! G, G,2 ^F, | ^F,2 E, E,2 ^D, | %116
w: |bangt, _ wenn dir|oft *||||
 (^D,2 ^F,) D, z z | z6 | z2!ff! B, B,2 B, | B,2 z4 | z2 ^F, F,2 F, | ^F,2 z F,3 | B,6- | %123
w: |||||||
 B,3 ^F,3 | ^F,3 z z B, | B,3 B,2 B, ||[K:E] G,3- G,2 G, | B,3 ^B,3 | C6 | C z z z2 z | %130
w: |||||||
 z z E, G,2 G, | B,2 B, B,2 B, | B,2 z E3 | B,3 A,2 A, | G,3- G,2 G, | B,3 =D3 | C3 B,2 B, | %137
w: nur un- ver-|zagt auf Gott ver-|traut, es|muss doch, es||||
 A,3 A,3 | G,2!p! E, E,2 E, | ^E,2"^cresc." E, E,2 E, | F,2 F, F,2 G, |!f! B,3 A,3 | G,2 E D2 C | %143
w: |||||* nur un- ver-|
 B,2 C B,2 A, | G,2 E D2 C | B,2 C B,2 A, | G,3- G,2 G, | ^A,3 A,3 | B,6- | B,3 A,3 | G,6- | %151
w: zagt, * * *|* auf Gott ver-|traut, * * *||||||
 !fermata!G,6 |] %152
w: |
V:8
 B,, | E,2 ^D, E,2 B,, | E,2 ^D, E,2 B, | E2 D CG,A, | B,3 E, x B,, | E,2 =D, G,2 F, | %6
w: ||||||
 B,2 A, G,2 F, | !^!E,3 E,2 E, | !^!^E,3 E,2 E, | !^!F,3 !^!F,3 | !^!F,,3 !^!F,,3 | !^!F,,6 | %12
w: ||||||
 B,,2 x x2 B,, | E,E,^D, E,2 B,, | E,2 ^D, E,2 B, | E2 D CB,C | D3 D,2 D, | D,2 D, D,2 D, | %18
w: ||||||
 D,2 D, (D,2 ^D,) | (E,3 A,,2) A,, | D,3 D,E,F, | (G,3 G,,2) G,, | (G,,3 G,,A,,)B,, | C,3 B,,3 | %24
w: ||||||
 A,,3 A,,2 A,, | D,2 D, G,2 B,, | (C,3 D,3) | G,, z z z3 | z3 G,,2 G,, | G,,2 G,, G,,2 G,, | %30
w: ||||Blast nur,||
 (G,,2 C, E,2) F, | G,2 x G,3 | F,2 F, E,2 E, | ^D,3 D, x x | x6 | x6 | z6 | z3!pp! G,3 | F,3 F,3 | %39
w: |||||||auf|lei- sen,|
 =F,2 F, F,2 E, | =F,2 x x3 | =F,,3 =F,2 F, | E,3 ^D,3 | E,3 [E,,E,] x x | x3 A,,2 A,, | %45
w: ||||||
 E, x x x3 | x3 A,,2 A,, | E,, x x x3 | x3 ||[K:C][M:4/4] x | z2 | x8 | x8 | x8 | x8 | x8 | x8 | %57
w: ||||||||||||
 x8 | x8 | x8 | x4 x2 G,,2 | C,2 x C, B,,2 x C, | D,>D, !^!F,4 E,2 | A,2 x G, .^F,2 .B,,2 | %64
w: |||||||
 .E,2 .E,2 x2 E,2 | A,2 A,A, A,2 A,A, | A,2 G,G, ^F,2 F,2 | G,2 G,G, G,,2 ^G,,2 | %68
w: ||||
 A,,2 A,,2 ^C,2 D,B,, | =C,2 F,,F,, G,,3 G,, | C,2 G,2 (C2 B,)C | B,2 A,G, (F,2 ^F,2- | %72
w: ||* Sie flicht _ sich|blü- hen- de Krän- *|
 F,A,)G,=F, (E,2 D,)G, | (C,3 B,,) A,,2 A,,A,, | C,3 C, B,,3 B,, | C,2 B,,A,, G,,2 G,,G,, | %76
w: * * ze ins Haar, * ins|Haar, _ Krän- ze ins|Haar _ _ _|_ _ _ _ _ _|
 D,2 C,B,, A,,2 z2 | z2 z!f! A,, D,2 C,2 | B,,2 x2 x4 | x8 | x2 x E, E,2 _E,E, | D,2 D,D, D,3 D, | %82
w: |die rie- seln|||||
 G,,4 G,, x x2 | x2 G,, x G,, x x2 | x2 G,, x G,, x x2 | x8 | x4 x2 G,,2 | C,2 x C, B,,2 x C, | %88
w: ||||||
 A,,>A,, A,,4 x2 | x8 | x4 x x B,,2 | A,,3 B,, B,,2 A,,2 | ^G,,4 A,,2 =G,,2 | F,,8 | F,,8 | F,,8- | %96
w: ||||||||
 F,,6 F,,2 | G,,3 G,, G,,2 G,,2 | G,,3 G,, G,,2 G,,2 | G,3 G, A,2 ^F,2 | (G,4 G,,4) || %101
w: |||||
[M:6/8] C, z z z3 | z6 | z6 | z6 | z6 | z6 | z z D, D,2 D, | ^C,3 =C,3 | _B,,G,,A,, B,,3 | %110
w: ||||||und wenn dir|oft auch|bangt * und graut,|
 =B,,G,,A,, B,,2 B,, | C,3- C,2 C, | C,2 C, | C,2 C, | B,, x B,, B,,2 B,, | B,,2 B,, B,,2 B,, | %116
w: bangt * und graut, und|wenn _ dir|oft auch||||
 B,,3 B,, x x | x6 | x2 B, B,2 B, | B,2 x4 | x2 B,, B,,2 B,, | B,,2 x B,,3 | B,6- | B,3 B,,3 | %124
w: ||||||||
 B,,3 x x B, | B,3 B,2 B, ||[K:E] E,3- E,2 E, | E,3 E,3 | A,6 | A,, x x x2 x | x x B,, B,,2 B,, | %131
w: |||||||
 B,,2 B, B,2 B, | E,2 x E3 | B,3 A,2 A, | G,3 E,3 | B,,3 G,,3 | A,,3 C,2 C, | F,3 A,,3 | %138
w: |||muss doch,|Früh- ling|||
 B,,2 B,, B,,2 B,, | B,,2 B,, B,,2 B,, | B,,2 B,, B,,2 B,, | B,3 B,,3 | E,2 C B,2 A, | %143
w: |||||
 G,2 A, G,2 F, | E,2 C B,2 A, | G,2 A, G,2 F, | E,2 D, C,3- | C,3 F,3 | B,,6- | B,,3 B,,3 | E,6- | %151
w: |||* auf Gott,|_ _||||
 E,6 |] %152
w: |

